assets/img/braze_icons/align-right-02.svg

<svg fill="none" height="24" viewBox="0 0 24 24" width="24" xmlns="http://www.w3.org/2000/svg"><g clip-rule="evenodd" fill="#801ed7" fill-rule="evenodd"><path d="m6 7.03198v-.06396c-.00001-.43865-.00002-.81714.02135-1.1304.0225-.32983.07201-.65974.20701-.98567.30448-.73508.88851-1.31911 1.62359-1.62359.32593-.135.65584-.18451.98567-.20701.31326-.02137.69174-.02136 1.13039-.02135h8.06399c.4386-.00001.8171-.00002 1.1304.02135.3298.0225.6597.07201.9857.20701.735.30448 1.3191.88851 1.6235 1.62359.135.32593.1845.65584.2071.98567.0213.31326.0213.69174.0213 1.13039v.06398c0 .43865 0 .81714-.0213 1.13039-.0226.32983-.0721.65974-.2071.98567-.3044.73508-.8885 1.31915-1.6235 1.62355-.326.135-.6559.1845-.9857.2071-.3133.0213-.6918.0213-1.1304.0213h-8.06398c-.43865 0-.81714 0-1.1304-.0213-.32983-.0226-.65974-.0721-.98567-.2071-.73508-.3044-1.31911-.88846-1.62359-1.62355-.135-.32593-.18451-.65584-.20701-.98567-.02137-.31325-.02136-.69174-.02135-1.1304z"/><path d="m2 17.032v-.064c-.00001-.4386-.00002-.8171.02135-1.1304.0225-.3298.07201-.6597.20701-.9856.30448-.7351.88851-1.3192 1.62359-1.6236.32593-.135.65584-.1845.98567-.207.31326-.0214.69174-.0214 1.13039-.0214h12.06399c.4386 0 .8171 0 1.1304.0214.3298.0225.6597.072.9857.207.735.3044 1.3191.8885 1.6235 1.6236.135.3259.1845.6558.2071.9856.0213.3133.0213.6918.0213 1.1304v.064c0 .4386 0 .8171-.0213 1.1304-.0226.3298-.0721.6597-.2071.9857-.3044.735-.8885 1.3191-1.6235 1.6235-.326.135-.6559.1845-.9857.2071-.3133.0213-.6918.0213-1.1304.0213h-12.06398c-.43865 0-.81714 0-1.1304-.0213-.32983-.0226-.65974-.0721-.98567-.2071-.73508-.3044-1.31911-.8885-1.62359-1.6235-.135-.326-.1845-.6559-.20701-.9857-.02137-.3133-.02136-.6918-.02135-1.1304z"/></g></svg>

<svg width="24" height="24" viewBox="0 0 24 24" fill="none" xmlns="http://www.w3.org/2000/svg">
<path fill-rule="evenodd" clip-rule="evenodd" d="M6 7.03198V6.96802C5.99999 6.52937 5.99998 6.15088 6.02135 5.83762C6.04385 5.50779 6.09336 5.17788 6.22836 4.85195C6.53284 4.11687 7.11687 3.53284 7.85195 3.22836C8.17788 3.09336 8.50779 3.04385 8.83762 3.02135C9.15088 2.99998 9.52936 2.99999 9.96801 3L18.032 3C18.4706 2.99999 18.8491 2.99998 19.1624 3.02135C19.4922 3.04385 19.8221 3.09336 20.1481 3.22836C20.8831 3.53284 21.4672 4.11687 21.7716 4.85195C21.9066 5.17788 21.9561 5.50779 21.9787 5.83762C22 6.15088 22 6.52936 22 6.96801V7.03199C22 7.47064 22 7.84913 21.9787 8.16238C21.9561 8.49221 21.9066 8.82212 21.7716 9.14805C21.4672 9.88313 20.8831 10.4672 20.1481 10.7716C19.8221 10.9066 19.4922 10.9561 19.1624 10.9787C18.8491 11 18.4706 11 18.032 11H9.96802C9.52937 11 9.15088 11 8.83762 10.9787C8.50779 10.9561 8.17788 10.9066 7.85195 10.7716C7.11687 10.4672 6.53284 9.88314 6.22836 9.14805C6.09336 8.82212 6.04385 8.49221 6.02135 8.16238C5.99998 7.84913 5.99999 7.47064 6 7.03198Z" fill="#801ED7"/>
<path fill-rule="evenodd" clip-rule="evenodd" d="M2 17.032L2 16.968C1.99999 16.5294 1.99998 16.1509 2.02135 15.8376C2.04385 15.5078 2.09336 15.1779 2.22836 14.852C2.53284 14.1169 3.11687 13.5328 3.85195 13.2284C4.17788 13.0934 4.50779 13.0439 4.83762 13.0214C5.15088 13 5.52936 13 5.96801 13H18.032C18.4706 13 18.8491 13 19.1624 13.0214C19.4922 13.0439 19.8221 13.0934 20.1481 13.2284C20.8831 13.5328 21.4672 14.1169 21.7716 14.852C21.9066 15.1779 21.9561 15.5078 21.9787 15.8376C22 16.1509 22 16.5294 22 16.968V17.032C22 17.4706 22 17.8491 21.9787 18.1624C21.9561 18.4922 21.9066 18.8221 21.7716 19.1481C21.4672 19.8831 20.8831 20.4672 20.1481 20.7716C19.8221 20.9066 19.4922 20.9561 19.1624 20.9787C18.8491 21 18.4706 21 18.032 21H5.96802C5.52937 21 5.15088 21 4.83762 20.9787C4.50779 20.9561 4.17788 20.9066 3.85195 20.7716C3.11687 20.4672 2.53284 19.8831 2.22836 19.1481C2.09336 18.8221 2.04386 18.4922 2.02135 18.1624C1.99998 17.8491 1.99999 17.4706 2 17.032Z" fill="#801ED7"/>
</svg>
